packages/vitzik-app/public/img/svg/instruments/instrument_Tuba.svg

<?xml version="1.0" encoding="utf-8"?>
<!-- Generator: Adobe Illustrator 25.0.0, SVG Export Plug-In . SVG Version: 6.00 Build 0)  -->
<svg version="1.1" xmlns="http://www.w3.org/2000/svg" xmlns:xlink="http://www.w3.org/1999/xlink" x="0px" y="0px"
	 viewBox="0 0 48 48" style="enable-background:new 0 0 48 48;" xml:space="preserve">
<style type="text/css">
	.st0{fill:#F5DAA7;}
	.st1{fill:#EDC472;}
	.st2{fill:#BC9B5B;}
	.st3{fill:#9A6A53;}
	.st4{fill:#855B47;}
	.st5{fill:#F4E2C1;}
	.st6{fill:#F7F7F7;}
	.st7{fill:#C8C3CA;}
	.st8{fill:#B78C7A;}
	.st9{fill:#7A5341;}
	.st10{fill:#704C3B;}
	.st11{fill:#CF9875;}
	.st12{fill:#C7865B;}
	.st13{clip-path:url(#SVGID_3_);}
	.st14{clip-path:url(#SVGID_4_);fill:#FFFFFF;stroke:#231F20;stroke-miterlimit:10;}
	.st15{fill:#FFFFFF;stroke:#231F20;stroke-miterlimit:10;}
	.st16{fill:none;stroke:#000000;stroke-width:4.5;stroke-miterlimit:10;}
	.st17{fill:#463C4B;}
	.st18{fill:#555A6E;}
	.st19{fill:#F06423;}
	.st20{fill:#FAA51E;}
	.st21{fill:#D7E6F0;}
	.st22{fill:#DADADA;}
	.st23{fill:#C4C6C6;}
	.st24{fill:#EDEEEF;}
	.st25{fill:#797981;}
	.st26{fill:#5A5A63;}
	.st27{fill:#494951;}
	.st28{fill:#29BAED;}
	.st29{fill:#DD9554;}
	.st30{fill:#CC8244;}
	.st31{fill:#805333;}
	.st32{fill:#A56A43;}
	.st33{fill:#CB8252;}
	.st34{fill:#ECF0F1;}
	.st35{fill:#603E26;}
	.st36{fill:#F9EAB0;}
	.st37{fill:#F5EFCA;}
	.st38{fill:#464F5D;}
	.st39{fill:#F3D55B;}
	.st40{fill:#6F6571;}
	.st41{fill:#4B3F4E;}
	.st42{fill:#5D5360;}
	.st43{fill:#857E87;}
	.st44{fill:#ECEAEC;}
	.st45{fill:#DAD8DB;}
	.st46{fill:#B3E59F;}
	.st47{fill:#CCF49F;}
	.st48{fill:#792A47;}
	.st49{fill:#A62B38;}
	.st50{fill:#D22D28;}
	.st51{fill:#FF2F19;}
	.st52{fill:#FFFFFF;}
	.st53{fill:#202666;}
	.st54{fill:#FDE6BB;}
	.st55{fill:#FE501F;}
	.st56{fill:#FD7226;}
	.st57{fill:#FCCD76;}
	.st58{fill:#FB932C;}
	.st59{fill:#4D2857;}
	.st60{fill:#B19046;}
	.st61{fill:#F0C419;}
	.st62{fill:#24AE5F;}
	.st63{fill:#E64C3C;}
	.st64{fill:#3B97D3;}
	.st65{fill:#E74444;}
	.st66{fill:#CE3536;}
	.st67{fill:#D9DBDD;}
	.st68{fill:#E8EDF1;}
	.st69{fill:#F3DB70;}
	.st70{fill:#D5DAF3;}
	.st71{fill:#A2AEE6;}
	.st72{fill:#FFC344;}
	.st73{fill:#FFE177;}
	.st74{fill:#BEC6ED;}
	.st75{fill:#8795DE;}
	.st76{fill-rule:evenodd;clip-rule:evenodd;fill:#A46A5A;}
	.st77{fill-rule:evenodd;clip-rule:evenodd;fill:#845252;}
	.st78{fill-rule:evenodd;clip-rule:evenodd;fill:#FFD05B;}
	.st79{fill-rule:evenodd;clip-rule:evenodd;fill:#704242;}
	.st80{fill-rule:evenodd;clip-rule:evenodd;fill:#FFC244;}
	.st81{fill-rule:evenodd;clip-rule:evenodd;fill:#596C76;}
	.st82{fill-rule:evenodd;clip-rule:evenodd;fill:#465A61;}
	.st83{fill:#A46A5A;}
	.st84{fill:#607D8B;}
	.st85{fill:#9C27B0;}
	.st86{fill:#03A9F4;}
	.st87{fill:#8BC34A;}
	.st88{fill:#FFC107;}
	.st89{fill:#FF9800;}
	.st90{fill:#F44336;}
	.st91{fill:#D7CCC8;}
	.st92{fill:#F57C00;}
	.st93{fill:#F9BB4B;}
	.st94{fill:#FCF05A;}
	.st95{fill:#66342E;}
	.st96{fill:#D3843D;}
	.st97{fill:#704C55;}
	.st98{fill:#5A344B;}
	.st99{fill:#E63950;}
	.st100{fill:#EFE2DD;}
	.st101{fill:#FF435B;}
	.st102{fill:#FFF5F5;}
	.st103{fill:#9B786F;}
	.st104{fill:#925CB4;}
	.st105{fill:#814BA2;}
	.st106{fill:#6F3F8A;}
	.st107{fill:#FFD185;}
	.st108{fill:#FFBA48;}
	.st109{fill:#FF5A35;}
	.st110{fill:#FF7A3C;}
	.st111{fill:#FFE8C2;}
	.st112{fill:#4F4F4F;}
	.st113{fill:#FF3A2F;}
	.st114{fill:#353535;}
	.st115{fill:#FB4A59;}
	.st116{fill:#F82F40;}
	.st117{fill:#3F5959;}
	.st118{fill:#384848;}
	.st119{fill:#EFF5F6;}
	.st120{fill:#CBE5E7;}
	.st121{fill:#FCC16D;}
	.st122{fill:#FCB44D;}
	.st123{fill:#A66856;}
	.st124{fill:#735458;}
	.st125{fill:#FFDEA9;}
	.st126{fill:#5C4346;}
	.st127{fill:#8F5040;}
	.st128{fill:#595959;}
	.st129{fill:#7F221C;}
	.st130{fill:#913122;}
	.st131{fill:#FFEFB0;}
	.st132{fill:#DB2116;}
	.st133{fill:#883F2E;}
	.st134{fill:#A44F3E;}
	.st135{fill:#D8AA5E;}
	.st136{fill:#E9B665;}
	.st137{fill:#E19974;}
	.st138{fill:#FFEFD2;}
	.st139{fill:#D7D0D6;}
	.st140{fill:#E8AD8C;}
	.st141{fill:#6D3326;}
	.st142{fill:#BA5D4F;}
	.st143{fill:#F5A871;}
	.st144{fill:#E89A5E;}
	.st145{fill:#A34F41;}
	.st146{fill:#D68A5A;}
	.st147{fill:#FFE5C4;}
	.st148{fill:#FDD1A7;}
	.st149{fill:#873F30;}
	.st150{fill:#C86F5C;}
	.st151{fill:#6C3328;}
	.st152{fill:#54231D;}
	.st153{fill:#B5B1B3;}
	.st154{fill:#FEC93E;}
	.st155{fill:#EFB533;}
	.st156{fill:#F7A738;}
	.st157{fill:#EA952F;}
	.st158{fill:#FD6E2E;}
	.st159{fill:#EA551B;}
	.st160{fill:#F5A257;}
	.st161{fill:#DB8F52;}
	.st162{fill:#75360D;}
	.st163{fill:#FFBF7B;}
	.st164{fill:#00CCB2;}
	.st165{fill:#00AB94;}
	.st166{fill:#FEA832;}
	.st167{fill:#FF8700;}
	.st168{fill:#00EED0;}
	.st169{fill:#FFD400;}
	.st170{fill:#FDBF00;}
	.st171{fill:#08B865;}
	.st172{fill:#E41F2D;}
	.st173{fill:#FD4755;}
	.st174{fill:#FB2B3A;}
	.st175{fill:#FED2A4;}
	.st176{fill:#FFE5C2;}
	.st177{fill:#FFBD86;}
	.st178{fill:#FE99A0;}
	.st179{fill:#FD8087;}
	.st180{fill:#C57A44;}
	.st181{fill:#09A755;}
	.st182{fill:#FEDF30;}
	.st183{fill:#FED402;}
	.st184{fill:#FAC600;}
	.st185{fill:#46CC8D;}
	.st186{fill:#00C27A;}
	.st187{fill:#FE7701;}
	.st188{fill:#FE860A;}
	.st189{fill:#C41926;}
	.st190{fill:#E89C5D;}
	.st191{fill:#F4B37D;}
	.st192{fill:#E8626C;}
	.st193{fill:#40C6C2;}
	.st194{fill:#FFC999;}
	.st195{fill:#4A4A68;}
	.st196{fill:#333356;}
	.st197{fill:#EDEDED;}
	.st198{fill:#C9C9C9;}
	.st199{fill:#FF9900;}
	.st200{fill:#FFCE00;}
	.st201{fill:#FBBD00;}
	.st202{fill:#ED8100;}
	.st203{fill:#FFE431;}
	.st204{fill:#FF9F00;}
	.st205{fill:#FFE666;}
	.st206{fill:#FFBF00;}
	.st207{fill:#FCCD31;}
	.st208{fill:#F2B016;}
	.st209{fill:#4A4D4F;}
	.st210{fill:#D3CBC2;}
	.st211{fill:#6D7072;}
	.st212{fill:#BAAFA6;}
	.st213{fill:#888C8E;}
	.st214{fill:#B4B4B4;}
	.st215{fill:#FFE999;}
	.st216{fill:#FFCF3B;}
	.st217{fill:#C1C1C1;}
	.st218{fill:#FFBC19;}
	.st219{fill:#94E6FF;}
	.st220{fill:#315F83;}
	.st221{fill:#267EA8;}
	.st222{fill:#3B3F5F;}
	.st223{fill:#D8F2FB;}
	.st224{fill:#35495E;}
	.st225{fill:#556080;}
	.st226{fill:#E4C05C;}
	.st227{fill:#E4C05C;stroke:#E4C05C;stroke-width:2;stroke-linecap:round;stroke-linejoin:round;stroke-miterlimit:10;}
	.st228{fill:#B57F5F;}
	.st229{fill:#966A5B;}
	.st230{fill:#FFD15B;}
	.st231{fill:#A5C3DC;}
	.st232{fill:#8697CB;}
	.st233{fill:#E0E0E0;}
	.st234{fill:#CCCCCC;}
	.st235{fill:#8E8E8E;}
	.st236{fill:#A0A0A0;}
	.st237{fill:#E13732;}
	.st238{fill:#F05055;}
	.st239{fill:#D24605;}
	.st240{fill:#FFCE53;}
	.st241{fill:#FFB833;}
	.st242{fill:#4999D1;}
	.st243{fill:#43AAF0;}
	.st244{fill:#FF2E23;}
	.st245{fill:#FF4A26;}
	.st246{fill:#C6805D;}
	.st247{fill:#77CC7D;}
	.st248{fill:#52BD7E;}
	.st249{fill:#98DB7C;}
	.st250{fill:#D48C64;}
	.st251{fill:#FFD18D;}
	.st252{fill:#FBBD80;}
	.st253{fill:#F3B573;}
	.st254{fill:#434A54;}
	.st255{fill:#DA4453;}
	.st256{fill:#FFCE54;}
	.st257{fill:#ED5564;}
	.st258{fill-rule:evenodd;clip-rule:evenodd;fill:#4BC3EF;}
	.st259{fill-rule:evenodd;clip-rule:evenodd;fill:#1BADDE;}
	.st260{fill-rule:evenodd;clip-rule:evenodd;fill:#DBD8DB;}
	.st261{fill-rule:evenodd;clip-rule:evenodd;fill:#C9BFC8;}
	.st262{fill:#421815;}
	.st263{fill:#FCB982;}
	.st264{fill:#FDDBBF;}
	.st265{fill:#FCCA9F;}
	.st266{fill:#C6865C;}
	.st267{fill:#B16E3D;}
	.st268{fill:#454545;}
	.st269{fill:#EFECEF;}
	.st270{fill:#E2DFE2;}
	.st271{fill:#3F3736;}
	.st272{fill:#C4755B;}
	.st273{fill:#FFE3A1;}
	.st274{fill-rule:evenodd;clip-rule:evenodd;fill:#D48C64;}
	.st275{fill:#DBD8DB;}
	.st276{fill:#BB5D4C;}
	.st277{fill:#465A61;}
	.st278{fill:#596C76;}
	.st279{fill:#E5E1E5;}
	.st280{fill:#7A8C98;}
	.st281{fill:#FEDBA6;}
	.st282{fill:#EAB14D;}
	.st283{fill:#617881;}
	.st284{fill:#E28086;}
	.st285{fill:#DD636E;}
	.st286{fill:#FFE07D;}
	.st287{fill:#ECBE6B;}
	.st288{fill:#E9EDF5;}
	.st289{fill:#CDD2E1;}
	.st290{fill:#FFAA00;}
	.st291{fill:#FF9500;}
	.st292{fill:#555A65;}
	.st293{fill:#333940;}
	.st294{fill:#E6A373;}
	.st295{fill:#CC8552;}
	.st296{fill:#FFDF40;}
	.st297{fill:#FFBE40;}
	.st298{fill:#FF9F40;}
	.st299{fill:#F77E00;}
	.st300{fill:#FFF04A;}
	.st301{fill:#00DDC1;}
	.st302{fill:#A24603;}
	.st303{fill:#F2D813;}
	.st304{fill:#803602;}
	.st305{fill:#3A3A3A;}
	.st306{fill:#AFAFAF;}
	.st307{fill:#686868;}
	.st308{fill:#925A15;}
	.st309{fill:#F3F2F6;}
	.st310{fill:#BF7D5A;}
	.st311{fill:#AA6256;}
	.st312{fill:#894E46;}
	.st313{fill:#DBA660;}
	.st314{fill:#E49542;}
	.st315{fill:#F9EFDA;}
	.st316{fill:#756E78;}
	.st317{fill:#665E66;}
	.st318{fill:#F9F6F9;}
	.st319{fill:#BC6C59;}
	.st320{fill:#994B39;}
	.st321{fill:#FEEC96;}
	.st322{fill:#F5DB64;}
	.st323{fill:#5D5E69;}
	.st324{fill:#FFE09F;}
	.st325{fill:#ECBD83;}
	.st326{fill:#F6D190;}
	.st327{fill:#FF8086;}
	.st328{fill:#E5646E;}
	.st329{fill:#357DA3;}
	.st330{fill:#F48A3B;}
	.st331{fill:#FFC233;}
	.st332{fill:#CDDEE0;}
	.st333{fill:#C8C5C9;}
	.st334{fill:#785353;}
	.st335{fill:#6E4848;}
	.st336{fill:#B7E4F8;}
	.st337{fill:#93D6F4;}
	.st338{fill:#DBF1FB;}
	.st339{fill:#8DCAFC;}
	.st340{fill:#64B9FC;}
	.st341{fill:#C4E1FF;}
	.st342{fill:#B5DBFD;}
	.st343{fill:#FEE7C9;}
	.st344{fill:#FFD496;}
	.st345{fill:#A3E440;}
	.st346{fill:#99D53B;}
	.st347{fill:#BCEA73;}
	.st348{fill:#C76D3D;}
	.st349{fill:#AA5E33;}
	.st350{fill:#D67F4F;}
	.st351{fill:#8DC637;}
	.st352{fill:#A79BA7;}
	.st353{fill:#7A6D79;}
	.st354{fill:#C4E2FF;}
	.st355{fill:#60B7FF;}
	.st356{fill:#B3DAFE;}
	.st357{fill:#F3F0F3;}
	.st358{fill:#EFEDEF;}
	.st359{fill:#CBC4CC;}
	.st360{fill:#26A6FE;}
	.st361{fill:#D2555A;}
	.st362{fill:#FF6464;}
	.st363{fill:#D7DEED;}
	.st364{fill:#B8BFD4;}
	.st365{fill:#959CB3;}
	.st366{fill:#F8C460;}
	.st367{fill:#FAAF42;}
	.st368{fill:#7A838B;}
	.st369{fill:#5D6972;}
	.st370{fill:#A7D0E1;}
	.st371{fill:#80BBCE;}
	.st372{fill:#FFD8CA;}
	.st373{fill:#FFBFAE;}
	.st374{fill:#FFE5D8;}
	.st375{fill:#E5EEF9;}
	.st376{fill:#56595E;}
	.st377{fill:#7F8284;}
	.st378{fill:#A5A5A4;}
	.st379{fill:#95A5A5;}
	.st380{fill:#BDC3C7;}
	.st381{fill:#7F8C8D;}
</style>
<g id="Acoustic_Grand_Keyboard">
	<g>
		<path class="st199" d="M11.51,24.92L9.48,26H7.86c-0.41-0.12-0.73-0.45-1.36-0.85v-1.71v-1.71C7.13,21.33,7.46,21,7.86,21h1.62
			l2.03,0.94V24.92z"/>
		<path class="st202" d="M7.86,24c-0.41,0.14-0.73-0.19-1.36-0.6v0.04v1.71c0.62,0.41,0.95,0.73,1.36,0.86h1.62l2.03-1.08v-1.74
			L9.48,24H7.86L7.86,24z"/>
		<path class="st203" d="M33.01,43.82c-3.14,3.14-8.51,0.91-8.5-3.53l0-7.29h1V16.09C24.66,12.05,32.52,5,36.43,1.74
			C37.13,1.15,36.72,0,35.8,0C29.43,0,7.48,0,7.48,0C6.56,0,6.14,1.14,6.84,1.73c3.87,3.26,11.66,10.32,11.66,14.35v0.08v17.17
			l0,2.77c0,6.03,4.47,11.32,10.47,11.85c6.81,0.6,12.53-4.82,12.53-11.58v-1.06C41.51,40,37.7,43.82,33.01,43.82L33.01,43.82z"/>
		<g>
			<path class="st206" d="M19.35,20h-0.84v6h0.84c2.84,0,5.16,2.15,5.16,4.78c0-0.83,0-1.96,0-3.23c0-0.82,0-1.7,0-2.59
				c0-1.09,0-2.19,0-3.23C23.1,20.65,21.31,20,19.35,20L19.35,20z"/>
			<path class="st206" d="M25.51,33v-2h-1l0,2.51v0.09l0-0.6H25.51z"/>
			<path class="st206" d="M30.01,46.2c-6.35,0-11.5-5.15-11.5-11.5l0,1.31c0,6.35,4.97,11.81,11.32,11.91
				c6.44,0.1,11.68-5.09,11.68-11.5v-1.11c0,1.28-0.28,2.49-0.79,3.58C39.04,43.18,34.88,46.2,30.01,46.2L30.01,46.2z"/>
		</g>
		<path class="st200" d="M33.01,43.66c-4.69,0-8.5-3.81-8.5-8.5l0.01-11.9c0-4.87,4.1-8.79,9.03-8.48c4.54,0.28,7.96,4.27,7.96,8.82
			l0,11.57C41.51,39.85,37.7,43.66,33.01,43.66L33.01,43.66z M33.01,17.83c-3.03,0-5.5,2.47-5.5,5.5l0,11.48
			c0,2.9,2.11,5.51,4.99,5.77c3.26,0.29,6.01-2.28,6.01-5.48V23.33C38.51,20.3,36.04,17.83,33.01,17.83L33.01,17.83z"/>
		<path class="st201" d="M32.5,15.9c-2.88,0.26-4.99,2.87-4.99,5.77l0,1.41c0-3.03,2.47-5.5,5.5-5.5c3.03,0,5.5,2.47,5.5,5.5v-1.7
			C38.51,18.18,35.76,15.61,32.5,15.9z"/>
		<path class="st201" d="M33.01,42.09c-4.66,0-8.45-3.77-8.5-8.42l0,1.29c0,4.55,3.42,8.54,7.95,8.83c4.93,0.31,9.05-3.61,9.05-8.48
			v-1.72C41.51,38.27,37.7,42.09,33.01,42.09L33.01,42.09z"/>
		<path class="st206" d="M35.96,29h-1.45v-2.11c0.13-0.4-0.19-0.73-0.59-0.73s-0.73,0.32-0.41,0.73V29h-1v-2.11
			c0.01-0.4-0.31-0.73-0.72-0.73s-0.73,0.32-0.28,0.73V29h-1v-2.11c-0.11-0.4-0.44-0.73-0.84-0.73s-0.73,0.32-0.16,0.73V29h-1.88
			c-0.4-0.41-0.73-0.09-0.73,0.31s0.32,0.73,0.73,0.69h1.88v1.48c-0.57,0.4-0.24,0.73,0.16,0.73s0.73-0.32,0.84-0.73V30h1v1.48
			c-0.44,0.4-0.12,0.73,0.28,0.73s0.73-0.32,0.72-0.73V30h1v1.48c-0.32,0.4,0.01,0.73,0.41,0.73s0.73-0.32,0.59-0.73V30h1.45
			c0.4,0.04,0.73-0.29,0.73-0.69S36.36,28.59,35.96,29z"/>
		<path class="st203" d="M24.51,31.96V26.9c0-3.31,2.2-6.34,5.43-7.04c4.54-0.99,8.57,2.46,8.57,6.83v5.28c0,3.87-3.13,7-7,7h0
			C27.64,38.96,24.51,35.83,24.51,31.96z M31.51,22.75c-2.21,0-4,1.79-4,4l0,4.93c0,2.11,1.53,4.01,3.63,4.19
			c2.37,0.21,4.37-1.66,4.37-3.98v-5.15C35.51,24.54,33.71,22.75,31.51,22.75L31.51,22.75z"/>
		<path class="st206" d="M31.51,20.85c-2.21,0-4,1.79-4,4v1.67c0-2.21,1.79-4,4-4c2.21,0,4,1.79,4,4v-1.67
			C35.51,22.65,33.71,20.85,31.51,20.85L31.51,20.85z"/>
		<path class="st206" d="M31.51,37.35c-3.86,0-7-3.14-7-7l0,1.41c0,3.59,2.57,6.82,6.13,7.25c4.25,0.51,7.87-2.8,7.87-6.95v-1.71
			C38.51,34.21,35.37,37.35,31.51,37.35L31.51,37.35z"/>
		<path class="st203" d="M27.58,30.19c0-4.52-3.67-8.19-8.19-8.19h-7.88v3h7.88c2.86,0,5.2,2.33,5.2,5.19"/>
	</g>
</g>
<g id="Layer_2">
</g>
</svg>

<svg id="Acoustic_Grand_Keyboard" data-name="Acoustic Grand Keyboard" xmlns="http://www.w3.org/2000/svg" viewBox="0 0 48 48"><defs><style>.cls-1{fill:#f90;}.cls-2{fill:#ed8100;}.cls-3{fill:#ffe431;}.cls-4{fill:#ffbf00;}.cls-5{fill:#ffce00;}.cls-6{fill:#fbbd00;}</style></defs><path class="cls-1" d="M11.51,24.92,9.48,26H7.86a6.93,6.93,0,0,1-1.35-.85V21.73c.62-.4,1-.73,1.35-.73H9.48l2,.94Z"/><path class="cls-2" d="M7.86,24c-.4.14-.73-.19-1.35-.6v1.74A6.61,6.61,0,0,0,7.86,26H9.48l2-1.08V23.18l-2,.82Z"/><path class="cls-3" d="M33,43.82a5,5,0,0,1-8.5-3.53V33h1V16.09c-.85-4,7-11.09,10.92-14.35A1,1,0,0,0,35.8,0H7.48a1,1,0,0,0-.64,1.73C10.71,5,18.51,12.05,18.51,16.09v20A11.76,11.76,0,0,0,29,48,11.55,11.55,0,0,0,41.51,36.37v-1a8.51,8.51,0,0,1-8.5,8.5Z"/><path class="cls-4" d="M19.35,20h-.84v6h.84a5,5,0,0,1,5.16,4.78V21.72A8.51,8.51,0,0,0,19.35,20Z"/><path class="cls-4" d="M25.51,33V31h-1v2Z"/><path class="cls-4" d="M30,46.2a11.5,11.5,0,0,1-11.5-11.5V36A11.78,11.78,0,0,0,29.82,47.93a11.51,11.51,0,0,0,11.69-11.5V35.32a8.56,8.56,0,0,1-.79,3.58A11.5,11.5,0,0,1,30,46.2Z"/><path class="cls-5" d="M33,43.66a8.51,8.51,0,0,1-8.5-8.5V23.26a8.5,8.5,0,0,1,9-8.48,8.73,8.73,0,0,1,8,8.82V35.16a8.51,8.51,0,0,1-8.5,8.5Zm0-25.83a5.51,5.51,0,0,0-5.5,5.5V34.81a5.7,5.7,0,0,0,5,5.76,5.5,5.5,0,0,0,6-5.47V23.33a5.51,5.51,0,0,0-5.5-5.5Z"/><path class="cls-6" d="M32.5,15.9a5.7,5.7,0,0,0-5,5.77v1.41a5.5,5.5,0,0,1,11,0v-1.7A5.51,5.51,0,0,0,32.5,15.9Z"/><path class="cls-6" d="M33,42.09a8.51,8.51,0,0,1-8.5-8.42V35a8.72,8.72,0,0,0,8,8.83,8.52,8.52,0,0,0,9-8.49V33.59a8.51,8.51,0,0,1-8.5,8.5Z"/><path class="cls-4" d="M36,29H34.51V26.89a.57.57,0,0,0-.59-.73c-.4,0-.73.33-.41.73V29h-1V26.89a.72.72,0,0,0-.72-.73c-.4,0-.72.33-.28.73V29h-1V26.89a.94.94,0,0,0-.84-.73c-.4,0-.73.33-.16.73V29H27.63c-.4-.41-.73-.09-.73.31a.68.68,0,0,0,.73.69h1.88v1.48c-.57.4-.24.73.16.73a.94.94,0,0,0,.84-.73V30h1v1.48c-.44.4-.12.73.28.73a.72.72,0,0,0,.72-.73V30h1v1.48c-.32.4,0,.73.41.73a.57.57,0,0,0,.59-.73V30H36a.67.67,0,0,0,.72-.69C36.68,28.91,36.36,28.59,36,29Z"/><path class="cls-3" d="M24.51,32V26.9a7.14,7.14,0,0,1,5.43-7,7,7,0,0,1,8.57,6.83V32a7,7,0,0,1-7,7h0A7,7,0,0,1,24.51,32Zm7-9.21a4,4,0,0,0-4,4v4.93a4.14,4.14,0,0,0,3.63,4.2,4,4,0,0,0,4.37-4V26.75a4,4,0,0,0-4-4Z"/><path class="cls-4" d="M31.51,20.85a4,4,0,0,0-4,4v1.68a4,4,0,1,1,8,0V24.85a4,4,0,0,0-4-4Z"/><path class="cls-4" d="M31.51,37.35a7,7,0,0,1-7-7v1.41A7.21,7.21,0,0,0,30.64,39a7,7,0,0,0,7.87-6.95V30.35a7,7,0,0,1-7,7Z"/><path class="cls-3" d="M27.58,30.19A8.19,8.19,0,0,0,19.39,22H11.51v3h7.88a5.21,5.21,0,0,1,5.2,5.19"/></svg>
